X: 342
T: Quanren xiaodiao
L: 1/8
M: 4/4
K: G
d d/ A/ d e/ d/ c B/ d/A2 [I:setbarnb 1]| 
d A/ B/ A A/ D/G2F E | 
d F A B d G F E/ D/ | 
d A/ B/ A ED4 | 
G DG2A d B d | 
B A/ B/ A DG2F E | 
d F A B d G F/ E/ D | 
B A/ B/ A ED4 |]

@@@ Tune index: 9216
